X:14
B:Bn^cne#dg f>a|gfe d2|d2 f2|ed BA|B2 AF|D2 FA|BA BAA|BA:EC|FEF |A2 ABc|A>GA CDC|
D2 ce | fe


*****************************


14500 0 0.99940896 

<start:F
F2|AB/A BA|GE D>G|BE GB|GG/E/ EF|GF GF/E/|BA FB|A2 DE|E2 D2|cB ed|cE A3 || 
|:e2 fe|d2 AF|FG E>|


*****************************


14600 0 1.5072479 

<starb>)
M:3/4
L:1/8
K:D
Bf/B/ AB|B4|
G>A BA|BA dl:|fe a>f|a/e/d/d d/B/A/G/|F/A/G/A/^G/B/G|AD AD|F2 Ed:|



*****************************


14700 0 2.7383358 

<star
